assets/images/info-img2.svg

<svg width="64" height="64" viewBox="0 0 64 64" fill="none" xmlns="http://www.w3.org/2000/svg">
<path fill-rule="evenodd" clip-rule="evenodd" d="M37.2728 6.16832C37.2149 6.15931 37.1565 6.15515 37.0981 6.15583H8.18455C7.60436 6.15583 7.13403 6.62617 7.13403 7.20635V57.0162C7.13403 57.5963 7.60436 58.0667 8.18455 58.0667H38.3911L38.3928 58.0667L38.4023 58.0666L38.404 58.0666L57.1994 58.0666C57.7796 58.0666 58.2499 57.5963 58.2499 57.0161V33.1489C58.2499 31.4217 56.8495 30.023 55.124 30.023H47.6301V16.6764C47.6301 16.5084 47.5905 16.3488 47.5198 16.2073C47.4858 16.1392 47.4439 16.074 47.3943 16.0132C47.3719 15.9857 47.3479 15.9591 47.3224 15.9336L47.3201 15.9313L37.8558 6.46591C37.8488 6.45893 37.8418 6.45204 37.8347 6.44525C37.6744 6.29262 37.4772 6.20016 37.2728 6.16832ZM9.23506 55.9656V8.25686H36.06V16.6764C36.06 17.2566 36.5304 17.727 37.1106 17.727H45.5291V30.023H40.4664C38.7396 30.023 37.3405 31.422 37.3405 33.1489V55.9656H9.23506ZM38.1611 15.6259V9.74272L44.0436 15.6259H38.1611ZM13.3731 14.1981C12.793 14.1981 12.3226 14.6685 12.3226 15.2487C12.3226 15.8288 12.793 16.2992 13.3731 16.2992H28.9387C29.5189 16.2992 29.9892 15.8288 29.9892 15.2487C29.9892 14.6685 29.5189 14.1981 28.9387 14.1981H13.3731ZM13.3731 22.4996C12.793 22.4996 12.3226 22.9699 12.3226 23.5501C12.3226 24.1303 12.793 24.6006 13.3731 24.6006H41.3912C41.9713 24.6006 42.4417 24.1303 42.4417 23.5501C42.4417 22.9699 41.9713 22.4996 41.3912 22.4996H13.3731ZM13.3731 30.8012C12.793 30.8012 12.3226 31.2715 12.3226 31.8517C12.3226 32.4319 12.793 32.9022 13.3731 32.9022H33.0895C33.6697 32.9022 34.14 32.4319 34.14 31.8517C34.14 31.2715 33.6697 30.8012 33.0895 30.8012H13.3731ZM39.4416 33.1489C39.4416 32.5824 39.9 32.124 40.4664 32.124H46.5685L46.5779 32.1241H46.5813L46.5917 32.124H55.124C55.6898 32.124 56.1489 32.5827 56.1489 33.1489V38.4107H39.4416V33.1489ZM13.3731 39.1028C12.793 39.1028 12.3226 39.5732 12.3226 40.1534C12.3226 40.7335 12.793 41.2039 13.3731 41.2039H33.0895C33.6697 41.2039 34.14 40.7335 34.14 40.1534C34.14 39.5732 33.6697 39.1028 33.0895 39.1028H13.3731ZM39.4416 55.9656V40.5117H56.1489V55.9656H39.4416ZM41.3103 42.216C40.7301 42.216 40.2597 42.6864 40.2597 43.2666C40.2597 43.8467 40.7301 44.3171 41.3103 44.3171H43.697C44.2772 44.3171 44.7475 43.8467 44.7475 43.2666C44.7475 42.6864 44.2772 42.216 43.697 42.216H41.3103ZM46.6024 42.216C46.0222 42.216 45.5519 42.6864 45.5519 43.2666C45.5519 43.8467 46.0222 44.3171 46.6024 44.3171H48.9891C49.5693 44.3171 50.0396 43.8467 50.0396 43.2666C50.0396 42.6864 49.5693 42.216 48.9891 42.216H46.6024ZM51.8948 42.216C51.3146 42.216 50.8443 42.6864 50.8443 43.2666C50.8443 43.8467 51.3146 44.3171 51.8948 44.3171H54.2815C54.8617 44.3171 55.332 43.8467 55.332 43.2666C55.332 42.6864 54.8617 42.216 54.2815 42.216H51.8948ZM41.3103 46.8857C40.7301 46.8857 40.2597 47.3561 40.2597 47.9363C40.2597 48.5164 40.7301 48.9868 41.3103 48.9868H43.697C44.2772 48.9868 44.7475 48.5164 44.7475 47.9363C44.7475 47.3561 44.2772 46.8857 43.697 46.8857H41.3103ZM46.6024 46.8857C46.0222 46.8857 45.5519 47.3561 45.5519 47.9363C45.5519 48.5164 46.0222 48.9868 46.6024 48.9868H48.9891C49.5693 48.9868 50.0396 48.5164 50.0396 47.9363C50.0396 47.3561 49.5693 46.8857 48.9891 46.8857H46.6024ZM51.8948 46.8857C51.3146 46.8857 50.8443 47.3561 50.8443 47.9363C50.8443 48.5164 51.3146 48.9868 51.8948 48.9868H54.2815C54.8617 48.9868 55.332 48.5164 55.332 47.9363C55.332 47.3561 54.8617 46.8857 54.2815 46.8857H51.8948ZM13.3731 47.4045C12.793 47.4045 12.3226 47.8748 12.3226 48.455C12.3226 49.0352 12.793 49.5055 13.3731 49.5055H33.0895C33.6697 49.5055 34.14 49.0352 34.14 48.455C34.14 47.8748 33.6697 47.4045 33.0895 47.4045H13.3731ZM41.3103 51.5552C40.7301 51.5552 40.2597 52.0255 40.2597 52.6057C40.2597 53.1859 40.7301 53.6562 41.3103 53.6562H43.697C44.2772 53.6562 44.7475 53.1859 44.7475 52.6057C44.7475 52.0255 44.2772 51.5552 43.697 51.5552H41.3103ZM46.6024 51.5552C46.0222 51.5552 45.5519 52.0255 45.5519 52.6057C45.5519 53.1859 46.0222 53.6562 46.6024 53.6562H48.9891C49.5693 53.6562 50.0396 53.1859 50.0396 52.6057C50.0396 52.0255 49.5693 51.5552 48.9891 51.5552H46.6024ZM51.8948 51.5552C51.3146 51.5552 50.8443 52.0255 50.8443 52.6057C50.8443 53.1859 51.3146 53.6562 51.8948 53.6562H54.2815C54.8617 53.6562 55.332 53.1859 55.332 52.6057C55.332 52.0255 54.8617 51.5552 54.2815 51.5552H51.8948Z" fill="#242343"/>
</svg>

<svg width="64" height="64" fill="none" xmlns="http://www.w3.org/2000/svg"><path fill-rule="evenodd" clip-rule="evenodd" d="M37.273 6.168a1.056 1.056 0 0 0-.175-.012H8.185c-.58 0-1.051.47-1.051 1.05v49.81c0 .58.47 1.05 1.05 1.05H57.2c.58 0 1.05-.47 1.05-1.05V33.15c0-1.727-1.4-3.126-3.125-3.126H47.63V16.676a1.047 1.047 0 0 0-.308-.742l-.002-.003-9.464-9.465a1.047 1.047 0 0 0-.583-.298ZM9.235 55.966V8.256H36.06v8.42c0 .58.47 1.051 1.05 1.051h8.42v12.296h-5.064a3.125 3.125 0 0 0-3.126 3.126v22.817H9.235Zm28.926-40.34V9.743l5.883 5.883H38.16Zm-24.788-1.428a1.05 1.05 0 0 0 0 2.101H28.94a1.05 1.05 0 0 0 0-2.1H13.373Zm0 8.302a1.05 1.05 0 0 0 0 2.1h28.018a1.05 1.05 0 0 0 0-2.1H13.373Zm0 8.301a1.05 1.05 0 0 0 0 2.101H33.09a1.05 1.05 0 1 0 0-2.1H13.373Zm26.069 2.348c0-.567.458-1.025 1.024-1.025h14.658c.566 0 1.025.459 1.025 1.025v5.262H39.442v-5.262Zm-26.069 5.954a1.05 1.05 0 0 0 0 2.1H33.09a1.05 1.05 0 0 0 0-2.1H13.373Zm26.069 16.863V40.512h16.707v15.454H39.442Zm1.868-13.75a1.05 1.05 0 0 0 0 2.101h2.387a1.05 1.05 0 0 0 0-2.101H41.31Zm5.292 0a1.05 1.05 0 0 0 0 2.101h2.387a1.05 1.05 0 0 0 0-2.101h-2.387Zm5.293 0a1.05 1.05 0 0 0 0 2.101h2.386a1.05 1.05 0 0 0 0-2.101h-2.386Zm-10.585 4.67a1.05 1.05 0 0 0 0 2.1h2.387a1.05 1.05 0 0 0 0-2.1H41.31Zm5.292 0a1.05 1.05 0 0 0 0 2.1h2.387a1.05 1.05 0 0 0 0-2.1h-2.387Zm5.293 0a1.05 1.05 0 0 0 0 2.1h2.386a1.05 1.05 0 0 0 0-2.1h-2.386Zm-38.522.518a1.05 1.05 0 0 0 0 2.101H33.09a1.05 1.05 0 1 0 0-2.1H13.373Zm27.937 4.151a1.05 1.05 0 1 0 0 2.101h2.387a1.05 1.05 0 1 0 0-2.1H41.31Zm5.292 0a1.05 1.05 0 1 0 0 2.101h2.387a1.05 1.05 0 1 0 0-2.1h-2.387Zm5.293 0a1.05 1.05 0 1 0 0 2.101h2.386a1.05 1.05 0 1 0 0-2.1h-2.386Z" fill="#242343"/></svg>
